img/icons/housing.svg

<svg width="84" height="84" viewBox="0 0 84 84" fill="none" xmlns="http://www.w3.org/2000/svg">
<path fill-rule="evenodd" clip-rule="evenodd" d="M42.0001 8.37866L4.43945 45.9393L6.56077 48.0606L14.0001 40.6213V78H10.0001V81H75.0001V78H70.0001V40.6213L77.4395 48.0606L79.5608 45.9393L70.0001 36.3787V8.99998H56.0001V22.3787L42.0001 8.37866ZM59.0001 25.3787L67.0001 33.3787V12H59.0001V25.3787ZM67.0001 37.6213L42.0001 12.6213L17.0001 37.6213V78H67.0001V37.6213ZM34 50V74H50V50H34ZM37 71V53H47V71H37ZM21 50H24V54H21V50ZM30 50H27V54H30V50ZM21 56H24V60H21V56ZM30 56H27V60H30V56ZM54 50H57V54H54V50ZM63 50H60V54H63V50ZM54 56H57V60H54V56ZM63 56H60V60H63V56ZM37 36C37 33.2386 39.2386 31 42 31C44.7614 31 47 33.2386 47 36C47 38.7614 44.7614 41 42 41C39.2386 41 37 38.7614 37 36ZM42 28C37.5817 28 34 31.5817 34 36C34 40.4183 37.5817 44 42 44C46.4183 44 50 40.4183 50 36C50 31.5817 46.4183 28 42 28Z" fill="black"/>
</svg>

<svg width="84" height="84" fill="none" xmlns="http://www.w3.org/2000/svg"><path fill-rule="evenodd" clip-rule="evenodd" d="M42 8.38 4.44 45.94l2.12 2.12L14 40.62V78h-4v3h65v-3h-5V40.62l7.44 7.44 2.12-2.12L70 36.38V9H56v13.38l-14-14Zm17 17 8 8V12h-8v13.38Zm8 12.24-25-25-25 25V78h50V37.62ZM34 50v24h16V50H34Zm3 21V53h10v18H37ZM21 50h3v4h-3v-4Zm9 0h-3v4h3v-4Zm-9 6h3v4h-3v-4Zm9 0h-3v4h3v-4Zm24-6h3v4h-3v-4Zm9 0h-3v4h3v-4Zm-9 6h3v4h-3v-4Zm9 0h-3v4h3v-4ZM37 36a5 5 0 1 1 10 0 5 5 0 0 1-10 0Zm5-8a8 8 0 1 0 0 16 8 8 0 0 0 0-16Z" fill="#000"/></svg>
